images/Desktop-tool-icons.svg

<svg xmlns="http://www.w3.org/2000/svg" width="588" height="148" fill="none"><path fill="#7c4dff" d="M66.373 111.443c-.08-2.311 1.721-4.443 4.156-4.443h24.946c2.435 0 4.236 2.132 4.155 4.443-.077 2.221.023 5.097.747 7.443.726 2.353 1.951 3.84 3.957 4.031v2.167c-2.006.191-3.23 1.678-3.957 4.031-.724 2.345-.824 5.222-.747 7.443.08 2.31-1.721 4.442-4.155 4.442H70.529c-2.434 0-4.236-2.132-4.155-4.443.077-2.221-.023-5.097-.747-7.443-.726-2.353-1.954-3.84-3.96-4.031v-2.167c2.006-.191 3.233-1.678 3.96-4.031.723-2.345.824-5.221.746-7.442"/><path fill="#fff" d="M86.073 123.464v-.028c1.853-.32 3.299-2.057 3.299-3.97 0-1.352-.52-2.498-1.504-3.312-.981-.812-2.357-1.241-3.981-1.241H76.45v18.167h7.475c1.942 0 3.555-.474 4.663-1.372s1.696-2.207 1.696-3.783c-.001-2.381-1.691-4.169-4.211-4.461m-3.483-.856h-3.181v-5.318h3.784c2.076 0 3.219.911 3.219 2.565.001 1.775-1.357 2.753-3.822 2.753m-3.181 2.226h3.759c2.716 0 4.092.981 4.092 2.916 0 1.932-1.357 2.953-3.925 2.953h-3.926z"/><path fill="#e65100" d="M506 10h-34l3 34 14 4 14-4z"/><path fill="#ff6d00" d="M489 13v31.9l11.2-3.2 2.5-28.7z"/><path fill="#fff" d="M489 30v-4h8.6l-.7 11.5-7.9 2.6v-4.2l4.1-1.4.3-4.5zm8.9-8 .3-4H489v4z"/><path fill="#eee" d="M489 35.9v4.2l-7.9-2.6-.4-5.5h4l.2 2.5zM484.1 22h4.9v-4h-9.1l.7 12h8.4v-4h-4.6z"/><path fill="#03a9f4" d="M317 10a4 4 0 0 1 4-4h28a4 4 0 0 1 4 4v28a4 4 0 0 1-4 4h-28a4 4 0 0 1-4-4z"/><path fill="#020f16" d="M331.016 19.174h-2.002v4.434h1.973q.82 0 1.27-.537.45-.538.449-1.563 0-1.065-.459-1.694a1.47 1.47 0 0 0-1.231-.64"/><path fill="#020f16" d="M320 9v30h30V9zm14.365 15.789Q333.125 26 330.928 26h-1.914v5h-2.871V16.781h4.844q2.11 0 3.364 1.309t1.255 3.398q0 2.09-1.241 3.301m9.317 5.547q-1.064.86-2.793.859-1.163 0-2.051-.454a3.45 3.45 0 0 1-1.392-1.265 3.26 3.26 0 0 1-.503-1.748h2.627q.02.722.337 1.084.318.361 1.04.361 1.113 0 1.113-1.006 0-.352-.337-.649t-1.498-.805q-1.709-.693-2.349-1.436t-.64-1.846q0-1.387 1.001-2.29 1.002-.903 2.651-.903 1.737 0 2.783.898t1.045 2.412h-2.764q0-1.289-1.074-1.289-.439 0-.723.273-.284.274-.283.762 0 .351.313.62.312.269 1.475.767 1.69.626 2.388 1.392.698.767.698 1.987 0 1.417-1.064 2.276"/><path fill="#7cb342" d="M172.216 33.78c-.023-.211-.211-.305-.351-.305s-3.21-.234-3.21-.234-2.132-2.132-2.39-2.343c-.234-.234-.68-.164-.867-.117-.023 0-.469.141-1.195.375-.726-2.086-1.968-3.984-4.194-3.984h-.211c-.611-.797-1.407-1.172-2.063-1.172-5.155 0-7.639 6.444-8.412 9.725-2.015.633-3.445 1.054-3.609 1.125-1.125.351-1.148.375-1.289 1.429-.117.797-3.046 23.456-3.046 23.456l22.8 4.265 12.373-2.671c.023-.047-4.312-29.338-4.336-29.549m-9.279-2.297c-.562.164-1.242.375-1.921.609v-.421c0-1.265-.164-2.296-.469-3.117 1.171.141 1.898 1.43 2.39 2.929m-3.82-2.671c.305.797.516 1.922.516 3.468v.234c-1.265.398-2.601.797-3.984 1.242.773-2.952 2.25-4.405 3.468-4.944m-1.5-1.453c.234 0 .469.094.656.234-1.664.773-3.421 2.718-4.148 6.655-1.101.351-2.156.656-3.163.984.844-2.999 2.953-7.873 6.655-7.873"/><path fill="#558b2f" d="M171.865 33.428c-.141 0-3.21-.234-3.21-.234s-2.132-2.132-2.39-2.343a.46.46 0 0 0-.305-.141L164.249 66l12.373-2.671s-4.335-29.338-4.359-29.549a.64.64 0 0 0-.398-.352"/><path fill="#fff" d="m159.792 40.593-1.475 4.449s-1.337-.715-2.927-.715c-2.374 0-2.489 1.498-2.489 1.867 0 2.028 5.301 2.812 5.301 7.583 0 3.757-2.374 6.177-5.578 6.177-3.872 0-5.808-2.397-5.808-2.397l1.037-3.411s2.028 1.752 3.734 1.752c1.129 0 1.59-.876 1.59-1.521 0-2.651-4.333-2.766-4.333-7.145 0-3.665 2.628-7.214 7.952-7.214 1.981-.024 2.996.575 2.996.575"/><path fill="#a64a7b" d="M450 100h-38a4 4 0 0 0-4 4v16a4 4 0 0 0 4 4h19l8 4-2-4h13a4 4 0 0 0 4-4v-16a4 4 0 0 0-4-4"/><path fill="#fff" d="M447.443 108c.041 0 .132.005.277.038.342.077.559.198.82.686.31.559.46 1.283.46 2.215 0 1.398-.317 2.639-.973 3.802-.706 1.259-1.222 1.259-1.47 1.259-.041 0-.132-.005-.277-.038-.342-.077-.559-.198-.809-.666-.313-.574-.471-1.333-.471-2.253 0-1.399.314-2.63.963-3.765.728-1.278 1.255-1.278 1.48-1.278m0-3c-1.67 0-3.026.931-4.087 2.793q-1.356 2.373-1.356 5.25 0 2.15.835 3.686c.626 1.173 1.548 1.88 2.783 2.16q.495.111.939.111c1.687 0 3.043-.931 4.087-2.793.904-1.601 1.356-3.351 1.356-5.268 0-1.452-.278-2.662-.835-3.668-.626-1.173-1.548-1.88-2.783-2.16a4.3 4.3 0 0 0-.939-.111M435.443 108c.041 0 .132.005.268.036.333.076.571.207.829.689.31.558.46 1.282.46 2.214 0 1.398-.317 2.639-.973 3.802-.706 1.259-1.222 1.259-1.47 1.259-.041 0-.132-.005-.277-.038-.342-.077-.559-.198-.809-.666-.313-.574-.471-1.333-.471-2.253 0-1.399.314-2.63.963-3.765.728-1.278 1.255-1.278 1.48-1.278m0-3c-1.67 0-3.026.931-4.087 2.793q-1.356 2.373-1.356 5.25 0 2.15.835 3.686c.626 1.173 1.548 1.88 2.783 2.16q.495.111.939.111c1.687 0 3.043-.931 4.087-2.793.904-1.601 1.356-3.351 1.356-5.268 0-1.452-.278-2.662-.835-3.668-.626-1.173-1.565-1.88-2.783-2.16a4.3 4.3 0 0 0-.939-.111M425.5 121c-.421 0-.832-.178-1.123-.505-2.196-2.479-3.545-5.735-4.34-8.343-1.144 2.42-2.688 5.515-4.251 8.119a1.5 1.5 0 0 1-2.733-.378c-2.212-8.127-3.007-13.95-3.039-14.194a1.5 1.5 0 0 1 2.973-.4c.007.049.571 4.177 2.033 10.199 2.218-4.208 4.078-8.535 4.102-8.59a1.5 1.5 0 0 1 2.865.388c.007.052.542 3.825 2.245 7.451.719-7.166 2.873-10.839 2.982-11.021a1.5 1.5 0 0 1 2.573 1.543c-.025.044-2.787 4.846-2.787 14.231a1.5 1.5 0 0 1-1.5 1.5"/><path fill="#0277bd" d="M41 18H7l3 34 14 4 14-4z"/><path fill="#039be5" d="M24 21v31.9l11.2-3.2L37.7 21z"/><path fill="#fff" d="M33.1 26H24v4h4.9l-.3 4H24v4h4.4l-.3 4.5-4.1 1.4v4.2l7.9-2.6.7-11.5z"/><path fill="#eee" d="M24 26v4h-8.9l-.3-4zm-4.6 8 .2 4H24v-4zm.4 6h-4l.3 5.5 7.9 2.6v-4.2l-4.1-1.4z"/><path fill="#e64a19" d="M566 112h-8a7 7 0 1 1 0-14h8z"/><path fill="#7c4dff" d="M565 126h-7a7 7 0 1 1 0-14h7z"/><path fill="#66bb6a" d="M558 140a7 7 0 1 1 0-14h7v7a7 7 0 0 1-7 7"/><path fill="#ff7043" d="M572 112h-7V98h7a7 7 0 1 1 0 14"/><path fill="#29b6f6" d="M572 126a7 7 0 1 0 0-14 7 7 0 0 0 0 14"/><path fill="#fff" d="M252 123.95c11.018 0 19.95-8.932 19.95-19.95S263.018 84.05 252 84.05s-19.95 8.932-19.95 19.95 8.932 19.95 19.95 19.95"/><path fill="#01579b" d="M236.001 104c0 6.336 3.68 11.806 9.018 14.4l-7.634-20.912a15.9 15.9 0 0 0-1.384 6.512m26.803-.806c0-1.977-1.063-3.35-1.67-4.412-.813-1.329-1.576-2.437-1.576-3.752 0-1.465 1.471-2.84 3.041-2.84.071 0 .135.006.206.008A15.9 15.9 0 0 0 252.001 88c-5.389 0-10.153 2.666-13.052 6.749.228.074.307.039.611.039 1.669 0 4.264-.2 4.264-.2.86-.057.965 1.212.099 1.316 0 0-.864.105-1.828.152l5.931 17.778 3.5-10.501-2.603-7.248c-.861-.046-1.679-.152-1.679-.152-.862-.056-.762-1.375.098-1.316 0 0 2.648.2 4.217.2 1.675 0 4.264-.2 4.264-.2.861-.057.965 1.212.104 1.316 0 0-.87.105-1.832.152l5.891 17.61 1.599-5.326c.814-2.08 1.219-3.8 1.219-5.175m-10.523 2.202-4.8 13.952c1.436.426 2.95.652 4.52.652 1.861 0 3.649-.324 5.316-.907-.04-.071-.085-.143-.118-.22zm13.762-9.078q.107.766.108 1.645c0 1.628-.306 3.451-1.219 5.737l-4.885 14.135A16 16 0 0 0 268 104a16 16 0 0 0-1.957-7.682"/><path fill="#01579b" d="M232 104c0 11.024 8.97 20 19.999 20C263.03 124 272 115.024 272 104s-8.97-20-20-20-20 8.976-20 20m1.995 0c0-9.924 8.074-17.999 18.004-17.999s18.006 8.075 18.006 17.999-8.076 18.001-18.005 18.001-18.005-8.077-18.005-18.001"/></svg>

<svg width="588" height="148" viewBox="0 0 588 148" fill="none" xmlns="http://www.w3.org/2000/svg">
<path d="M66.373 111.443C66.293 109.132 68.094 107 70.529 107H95.475C97.91 107 99.711 109.132 99.63 111.443C99.553 113.664 99.653 116.54 100.377 118.886C101.103 121.239 102.328 122.726 104.334 122.917V125.084C102.328 125.275 101.104 126.762 100.377 129.115C99.653 131.46 99.553 134.337 99.63 136.558C99.71 138.868 97.909 141 95.475 141H70.529C68.095 141 66.293 138.868 66.374 136.557C66.451 134.336 66.351 131.46 65.627 129.114C64.901 126.761 63.673 125.274 61.667 125.083V122.916C63.673 122.725 64.9 121.238 65.627 118.885C66.35 116.54 66.451 113.664 66.373 111.443Z" fill="#7C4DFF"/>
<path d="M86.073 123.464V123.436C87.926 123.116 89.372 121.379 89.372 119.466C89.372 118.114 88.852 116.968 87.868 116.154C86.887 115.342 85.5109 114.913 83.8869 114.913H76.45V133.08H83.9249C85.8669 133.08 87.4799 132.606 88.5879 131.708C89.6969 130.809 90.284 129.501 90.284 127.925C90.283 125.544 88.593 123.756 86.073 123.464ZM82.59 122.608H79.409V117.29H83.193C85.269 117.29 86.412 118.201 86.412 119.855C86.413 121.63 85.055 122.608 82.59 122.608ZM79.409 124.834H83.1679C85.8839 124.834 87.26 125.815 87.26 127.75C87.26 129.682 85.9029 130.703 83.3349 130.703H79.409V124.834Z" fill="white"/>
<path d="M506 10H472L475 44L489 48L503 44L506 10Z" fill="#E65100"/>
<path d="M489 13V44.9L500.2 41.7L502.7 13H489Z" fill="#FF6D00"/>
<path d="M489 30V26H497.6L496.9 37.5L489 40.1V35.9L493.1 34.5L493.4 30H489ZM497.9 22L498.2 18H489V22H497.9Z" fill="white"/>
<path d="M489 35.9V40.1L481.1 37.5L480.7 32H484.7L484.9 34.5L489 35.9ZM484.1 22H489V18H479.9L480.6 30H489V26H484.4L484.1 22Z" fill="#EEEEEE"/>
<path d="M317 10C317 7.791 318.791 6 321 6H349C351.209 6 353 7.791 353 10V38C353 40.209 351.209 42 349 42H321C318.791 42 317 40.209 317 38V10Z" fill="#03A9F4"/>
<path d="M331.016 19.174H329.014V23.608H330.987C331.534 23.608 331.957 23.4289 332.257 23.0709C332.557 22.7129 332.706 22.1919 332.706 21.5079C332.706 20.7979 332.553 20.2339 332.247 19.8139C331.941 19.3939 331.53 19.181 331.016 19.174Z" fill="#020F16"/>
<path d="M320 9V39H350V9H320ZM334.365 24.789C333.539 25.597 332.393 26 330.928 26H329.014V31H326.143V16.781H330.987C332.393 16.781 333.515 17.218 334.351 18.09C335.187 18.962 335.606 20.095 335.606 21.488C335.606 22.881 335.192 23.981 334.365 24.789ZM343.682 30.336C342.973 30.909 342.041 31.195 340.889 31.195C340.114 31.195 339.43 31.044 338.838 30.741C338.246 30.438 337.781 30.016 337.446 29.476C337.111 28.936 336.943 28.353 336.943 27.728H339.57C339.584 28.209 339.695 28.571 339.907 28.812C340.119 29.053 340.465 29.173 340.947 29.173C341.689 29.173 342.06 28.838 342.06 28.167C342.06 27.933 341.948 27.716 341.723 27.518C341.498 27.32 341 27.052 340.225 26.713C339.086 26.251 338.303 25.773 337.876 25.277C337.449 24.781 337.236 24.167 337.236 23.431C337.236 22.506 337.57 21.743 338.237 21.141C338.904 20.539 339.789 20.238 340.888 20.238C342.046 20.238 342.974 20.538 343.671 21.136C344.368 21.734 344.716 22.539 344.716 23.548H341.952C341.952 22.689 341.595 22.259 340.878 22.259C340.585 22.259 340.345 22.35 340.155 22.532C339.965 22.714 339.872 22.969 339.872 23.294C339.872 23.528 339.976 23.735 340.185 23.914C340.394 24.093 340.884 24.349 341.66 24.681C342.787 25.098 343.582 25.562 344.048 26.073C344.514 26.584 344.746 27.247 344.746 28.06C344.746 29.005 344.391 29.763 343.682 30.336Z" fill="#020F16"/>
<path d="M172.216 33.78C172.193 33.569 172.005 33.475 171.865 33.475C171.725 33.475 168.655 33.241 168.655 33.241C168.655 33.241 166.523 31.109 166.265 30.898C166.031 30.664 165.585 30.734 165.398 30.781C165.375 30.781 164.929 30.922 164.203 31.156C163.477 29.07 162.235 27.172 160.009 27.172H159.798C159.187 26.375 158.391 26 157.735 26C152.58 26 150.096 32.444 149.323 35.725C147.308 36.358 145.878 36.779 145.714 36.85C144.589 37.201 144.566 37.225 144.425 38.279C144.308 39.076 141.379 61.735 141.379 61.735L164.179 66L176.552 63.329C176.575 63.282 172.24 33.991 172.216 33.78ZM162.937 31.483C162.375 31.647 161.695 31.858 161.016 32.092V31.671C161.016 30.406 160.852 29.375 160.547 28.554C161.718 28.695 162.445 29.984 162.937 31.483ZM159.117 28.812C159.422 29.609 159.633 30.734 159.633 32.28V32.514C158.368 32.912 157.032 33.311 155.649 33.756C156.422 30.804 157.899 29.351 159.117 28.812ZM157.617 27.359C157.851 27.359 158.086 27.453 158.273 27.593C156.609 28.366 154.852 30.311 154.125 34.248C153.024 34.599 151.969 34.904 150.962 35.232C151.806 32.233 153.915 27.359 157.617 27.359Z" fill="#7CB342"/>
<path d="M171.865 33.428C171.724 33.428 168.655 33.194 168.655 33.194C168.655 33.194 166.523 31.062 166.265 30.851C166.17 30.757 166.053 30.71 165.96 30.71L164.249 66L176.622 63.329C176.622 63.329 172.287 33.991 172.263 33.78C172.169 33.569 172.005 33.475 171.865 33.428Z" fill="#558B2F"/>
<path d="M159.792 40.593L158.317 45.042C158.317 45.042 156.98 44.327 155.39 44.327C153.016 44.327 152.901 45.825 152.901 46.194C152.901 48.222 158.202 49.006 158.202 53.777C158.202 57.534 155.828 59.954 152.624 59.954C148.752 59.954 146.816 57.557 146.816 57.557L147.853 54.146C147.853 54.146 149.881 55.898 151.587 55.898C152.716 55.898 153.177 55.022 153.177 54.377C153.177 51.726 148.844 51.611 148.844 47.232C148.844 43.567 151.472 40.018 156.796 40.018C158.777 39.994 159.792 40.593 159.792 40.593Z" fill="white"/>
<path d="M450 100H412C409.791 100 408 101.791 408 104V120C408 122.209 409.791 124 412 124H431L439 128L437 124H450C452.209 124 454 122.209 454 120V104C454 101.791 452.209 100 450 100Z" fill="#A64A7B"/>
<path d="M447.443 108C447.484 108 447.575 108.005 447.72 108.038C448.062 108.115 448.279 108.236 448.54 108.724C448.85 109.283 449 110.007 449 110.939C449 112.337 448.683 113.578 448.027 114.741C447.321 116 446.805 116 446.557 116C446.516 116 446.425 115.995 446.28 115.962C445.938 115.885 445.721 115.764 445.471 115.296C445.158 114.722 445 113.963 445 113.043C445 111.644 445.314 110.413 445.963 109.278C446.691 108 447.218 108 447.443 108ZM447.443 105C445.773 105 444.417 105.931 443.356 107.793C442.452 109.375 442 111.125 442 113.043C442 114.477 442.278 115.705 442.835 116.729C443.461 117.902 444.383 118.609 445.618 118.889C445.948 118.963 446.261 119 446.557 119C448.244 119 449.6 118.069 450.644 116.207C451.548 114.606 452 112.856 452 110.939C452 109.487 451.722 108.277 451.165 107.271C450.539 106.098 449.617 105.391 448.382 105.111C448.052 105.037 447.739 105 447.443 105Z" fill="white"/>
<path d="M435.443 108C435.484 108 435.575 108.005 435.711 108.036C436.044 108.112 436.282 108.243 436.54 108.725C436.85 109.283 437 110.007 437 110.939C437 112.337 436.683 113.578 436.027 114.741C435.321 116 434.805 116 434.557 116C434.516 116 434.425 115.995 434.28 115.962C433.938 115.885 433.721 115.764 433.471 115.296C433.158 114.722 433 113.963 433 113.043C433 111.644 433.314 110.413 433.963 109.278C434.691 108 435.218 108 435.443 108ZM435.443 105C433.773 105 432.417 105.931 431.356 107.793C430.452 109.375 430 111.125 430 113.043C430 114.477 430.278 115.705 430.835 116.729C431.461 117.902 432.383 118.609 433.618 118.889C433.948 118.963 434.261 119 434.557 119C436.244 119 437.6 118.069 438.644 116.207C439.548 114.606 440 112.856 440 110.939C440 109.487 439.722 108.277 439.165 107.271C438.539 106.098 437.6 105.391 436.382 105.111C436.052 105.037 435.739 105 435.443 105Z" fill="white"/>
<path d="M425.5 121C425.079 121 424.668 120.822 424.377 120.495C422.181 118.016 420.832 114.76 420.037 112.152C418.893 114.572 417.349 117.667 415.786 120.271C415.477 120.786 414.892 121.063 414.295 120.986C413.699 120.903 413.21 120.473 413.053 119.893C410.841 111.766 410.046 105.943 410.014 105.699C409.904 104.879 410.48 104.124 411.3 104.013C412.131 103.905 412.876 104.478 412.987 105.299C412.994 105.348 413.558 109.476 415.02 115.498C417.238 111.29 419.098 106.963 419.122 106.908C419.389 106.288 420.041 105.919 420.702 106.013C421.37 106.103 421.896 106.628 421.987 107.296C421.994 107.348 422.529 111.121 424.232 114.747C424.951 107.581 427.105 103.908 427.214 103.726C427.641 103.015 428.564 102.785 429.272 103.211C429.983 103.637 430.213 104.559 429.787 105.269C429.762 105.313 427 110.115 427 119.5C427 120.123 426.614 120.682 426.032 120.902C425.858 120.968 425.679 121 425.5 121Z" fill="white"/>
<path d="M41 18H7L10 52L24 56L38 52L41 18Z" fill="#0277BD"/>
<path d="M24 21V52.9L35.2 49.7L37.7 21H24Z" fill="#039BE5"/>
<path d="M33.1 26H24V30H28.9L28.6 34H24V38H28.4L28.1 42.5L24 43.9V48.1L31.9 45.5L32.6 34L33.1 26Z" fill="white"/>
<path d="M24 26V30H15.1L14.8 26H24ZM19.4 34L19.6 38H24V34H19.4ZM19.8 40H15.8L16.1 45.5L24 48.1V43.9L19.9 42.5L19.8 40Z" fill="#EEEEEE"/>
<path d="M566 112H558C554.134 112 551 108.866 551 105C551 101.134 554.134 98 558 98H566V112Z" fill="#E64A19"/>
<path d="M565 126H558C554.134 126 551 122.866 551 119C551 115.134 554.134 112 558 112H565V126Z" fill="#7C4DFF"/>
<path d="M558 140C554.134 140 551 136.866 551 133C551 129.134 554.134 126 558 126H565V133C565 136.866 561.866 140 558 140Z" fill="#66BB6A"/>
<path d="M572 112H565V98H572C575.866 98 579 101.134 579 105C579 108.866 575.866 112 572 112Z" fill="#FF7043"/>
<path d="M572 126C575.866 126 579 122.866 579 119C579 115.134 575.866 112 572 112C568.134 112 565 115.134 565 119C565 122.866 568.134 126 572 126Z" fill="#29B6F6"/>
<path d="M252 123.95C263.018 123.95 271.95 115.018 271.95 104C271.95 92.982 263.018 84.05 252 84.05C240.982 84.05 232.05 92.982 232.05 104C232.05 115.018 240.982 123.95 252 123.95Z" fill="white"/>
<path d="M236.001 104C236.001 110.336 239.681 115.806 245.019 118.4L237.385 97.488C236.498 99.479 236.001 101.676 236.001 104ZM262.804 103.194C262.804 101.217 261.741 99.844 261.134 98.782C260.321 97.453 259.558 96.345 259.558 95.03C259.558 93.565 261.029 92.19 262.599 92.19C262.67 92.19 262.734 92.196 262.805 92.198C259.961 89.584 256.168 88 252.001 88C246.612 88 241.848 90.666 238.949 94.749C239.177 94.823 239.256 94.788 239.56 94.788C241.229 94.788 243.824 94.588 243.824 94.588C244.684 94.531 244.789 95.8 243.923 95.904C243.923 95.904 243.059 96.009 242.095 96.056L248.026 113.834L251.526 103.333L248.923 96.085C248.062 96.039 247.244 95.933 247.244 95.933C246.382 95.877 246.482 94.558 247.342 94.617C247.342 94.617 249.99 94.817 251.559 94.817C253.234 94.817 255.823 94.617 255.823 94.617C256.684 94.56 256.788 95.829 255.927 95.933C255.927 95.933 255.057 96.038 254.095 96.085L259.986 113.695L261.585 108.369C262.399 106.289 262.804 104.569 262.804 103.194ZM252.281 105.396L247.481 119.348C248.917 119.774 250.431 120 252.001 120C253.862 120 255.65 119.676 257.317 119.093C257.277 119.022 257.232 118.95 257.199 118.873L252.281 105.396ZM266.043 96.318C266.114 96.828 266.151 97.377 266.151 97.963C266.151 99.591 265.845 101.414 264.932 103.7L260.047 117.835C264.805 115.063 268 109.902 268 104C268 101.219 267.289 98.604 266.043 96.318Z" fill="#01579B"/>
<path d="M232 104C232 115.024 240.97 124 251.999 124C263.03 124 272 115.024 272 104C272 92.976 263.03 84 252 84C240.97 84 232 92.976 232 104ZM233.995 104C233.995 94.076 242.069 86.001 251.999 86.001C261.929 86.001 270.005 94.076 270.005 104C270.005 113.924 261.929 122.001 252 122.001C242.072 122.001 233.995 113.924 233.995 104Z" fill="#01579B"/>
</svg>
